svg/system/refresh_anticlockwise_1_fill.svg

<?xml version="1.0" encoding="UTF-8"?>
<svg width="24px" height="24px" viewBox="0 0 24 24" version="1.1" xmlns="http://www.w3.org/2000/svg" xmlns:xlink="http://www.w3.org/1999/xlink">
    <title>refresh_anticlockwise_1_fill</title>
    <g id="Icon" stroke="none" stroke-width="1" fill="none" fill-rule="evenodd">
        <g id="System" transform="translate(-192.000000, -528.000000)">
            <g id="refresh_anticlockwise_1_fill" transform="translate(192.000000, 528.000000)">
                <path d="M24,0 L24,24 L0,24 L0,0 L24,0 Z M12.5935,23.2578 L12.5819,23.2595 L12.5109,23.295 L12.4919,23.2987 L12.4767,23.295 L12.4057,23.2595 C12.3958,23.2564 12.387,23.259 12.3821,23.2649 L12.378,23.2758 L12.3609,23.7031 L12.3659,23.7235 L12.3769,23.7357 L12.4805,23.8097 L12.4953,23.8136 L12.5071,23.8097 L12.6107,23.7357 L12.6233,23.7197 L12.6267,23.7031 L12.6096,23.2758 C12.6076,23.2657 12.601,23.2593 12.5935,23.2578 Z M12.8584,23.1453 L12.8445,23.1473 L12.6598,23.2397 L12.6499,23.2499 L12.6472,23.2611 L12.6651,23.6906 L12.6699,23.7034 L12.6784,23.7105 L12.8793,23.8032 C12.8914,23.8069 12.9022,23.803 12.9078,23.7952 L12.9118,23.7812 L12.8777,23.1665 C12.8753,23.1546 12.8674,23.147 12.8584,23.1453 Z M12.143,23.1473 C12.1332,23.1424 12.1222,23.1453 12.1156,23.1526 L12.1099,23.1665 L12.0758,23.7812 C12.0751,23.7927 12.0828,23.8019 12.0926,23.8046 L12.1083,23.8032 L12.3092,23.7105 L12.3186,23.7024 L12.3225,23.6906 L12.3404,23.2611 L12.3372,23.2485 L12.3278,23.2397 L12.143,23.1473 Z" id="MingCute" fill-rule="nonzero"></path>
                <path d="M13.2996,19.3741 C10.0529,19.9466 6.92235,18.3377 5.41898,15.5954 C5.02074,14.869 4.10902,14.6029 3.38259,15.0012 C2.65616,15.3994 2.39011,16.3111 2.78835,17.0375 C4.89089,20.8728 9.26971,23.131 13.8206,22.3286 C19.5315,21.3216 23.3447,15.8757 22.3378,10.1648 C21.3308,4.45389 15.8849,0.640618 10.174,1.6476 C5.88707,2.4035 2.67272,5.65972 1.7593,9.64652 C1.6585,10.0865 1.58565,10.5355 1.54243,10.9911 C1.41832,12.2992 2.80832,13.1489 3.90854,12.5398 L6.72891,10.9782 C8.27577,10.1218 7.49552,7.75916 5.74281,7.99245 L5.64135,8.00595 C6.72983,6.27002 8.52066,4.9854 10.6949,4.60203 C14.7741,3.88275 18.6641,6.60651 19.3833,10.6857 C20.1026,14.7649 17.3788,18.6549 13.2996,19.3741 Z" id="路径" fill="#09244B"></path>
            </g>
        </g>
    </g>
</svg>

<svg xmlns="http://www.w3.org/2000/svg" width="24" height="24"><g fill="none" fill-rule="evenodd"><path d="M24 0v24H0V0h24ZM12.594 23.258l-.012.002-.071.035-.02.004-.014-.004-.071-.036c-.01-.003-.019 0-.024.006l-.004.01-.017.428.005.02.01.013.104.074.015.004.012-.004.104-.074.012-.016.004-.017-.017-.427c-.002-.01-.009-.017-.016-.018Zm.264-.113-.014.002-.184.093-.01.01-.003.011.018.43.005.012.008.008.201.092c.012.004.023 0 .029-.008l.004-.014-.034-.614c-.003-.012-.01-.02-.02-.022Zm-.715.002a.023.023 0 0 0-.027.006l-.006.014-.034.614c0 .012.007.02.017.024l.015-.002.201-.093.01-.008.003-.011.018-.43-.003-.012-.01-.01-.184-.092Z"/><path fill="#09244B" d="M13.3 19.374a7.504 7.504 0 0 1-7.881-3.779 1.5 1.5 0 0 0-2.63 1.443c2.102 3.835 6.48 6.093 11.032 5.29 5.71-1.006 9.524-6.452 8.517-12.163C21.33 4.454 15.885.64 10.174 1.648a10.503 10.503 0 0 0-8.632 9.343C1.418 12.3 2.808 13.15 3.91 12.54l2.82-1.562c1.547-.856.767-3.219-.986-2.986l-.102.014A7.5 7.5 0 1 1 13.3 19.374Z"/></g></svg>
